icons/fill-new-other-medal.svg

<svg xmlns="http://www.w3.org/2000/svg" width="32px" height="32px" viewBox="0 0 32 32" version="1.1">
    <title>fill-new-other-medal</title>
    <g id="fill-new-other-medal" stroke-width="1" fill-rule="evenodd">
        <path d="M16,10 C21.5228475,10 26,14.4771525 26,20 C26,25.5228475 21.5228475,30 16,30 C10.4771525,30 6,25.5228475 6,20 C6,14.4771525 10.4771525,10 16,10 Z M12,2 L12.0000801,8.68279453 C10.3615496,9.26191879 8.88634964,10.1868072 7.6621481,11.3697919 L5.78265989,3.22485951 C5.65847341,2.68671811 5.99405018,2.14979528 6.53219158,2.0256088 C6.60593422,2.00859127 6.68137035,2 6.75705108,2 L12,2 Z M25.2429489,2 C25.7952337,2 26.2429489,2.44771525 26.2429489,3 C26.2429489,3.07568073 26.2343576,3.15111687 26.2173401,3.22485951 L24.3378519,11.3697919 C23.1138384,10.186989 21.6389036,9.26220294 20.000675,8.68306143 L20,2 L25.2429489,2 Z M18,2 L18.0004952,8.16599997 C17.3499222,8.05682643 16.6815974,8 16,8 C15.318641,8 14.6505452,8.05678669 14.0001873,8.16588546 L14,2 L18,2 Z" id="&#24418;&#29366;" />
    </g>
</svg>

<svg xmlns="http://www.w3.org/2000/svg" viewBox="0 0 32 32"><path fill="currentColor" d="M16 10c5.523 0 10 4.477 10 10s-4.477 10-10 10S6 25.523 6 20s4.477-10 10-10m-4-8v6.683a12.001 12.001 0 0 0-4.338 2.687l-1.88-8.145A1 1 0 0 1 6.758 2zm13.243 0a1 1 0 0 1 .974 1.225l-1.88 8.145a12.001 12.001 0 0 0-4.336-2.687L20 2zM18 2v6.166a12.081 12.081 0 0 0-4 0V2z"/></svg>
